svgs/daraz.svg

<svg width="192" height="192" viewBox="0 0 192 192" fill="none" xmlns="http://www.w3.org/2000/svg">
<path d="M96.2293 68.7521V24.014C96.2293 22.4239 97.9877 21.463 99.3259 22.3217L136.684 46.2937C138.413 47.4031 139.459 49.3161 139.459 51.3703V96.4913M96.2293 68.7521L139.459 96.4913M96.2293 68.7521L55.7744 94.711C54.0454 95.8204 53 97.7335 53 99.7873V140.099C53 142.153 54.0454 144.066 55.7744 145.176L92.9718 169.045C94.9567 170.318 97.502 170.318 99.4869 169.045L136.684 145.176C138.413 144.066 139.459 142.153 139.459 140.099V96.4913M96.2293 68.7521V124.23L139.459 96.4913" stroke="black" stroke-width="12" stroke-linecap="round" stroke-linejoin="round"/>
</svg>

<svg width="192" height="192" viewBox="0 0 192 192" fill="none" xmlns="http://www.w3.org/2000/svg"><path d="M96.23 68.752V24.014c0-1.59 1.758-2.551 3.096-1.692l37.358 23.972a6.032 6.032 0 0 1 2.775 5.076v45.121m-43.23-27.739 43.23 27.74m-43.23-27.74L55.774 94.711A6.032 6.032 0 0 0 53 99.787V140.1a6.033 6.033 0 0 0 2.774 5.077l37.198 23.869a6.035 6.035 0 0 0 6.515 0l37.197-23.869a6.034 6.034 0 0 0 2.775-5.077V96.491m-43.23-27.739v55.478l43.23-27.739" stroke="#000" stroke-width="12" stroke-linecap="round" stroke-linejoin="round"/></svg>
